X:1
T:Title
%%score 1 { ( 2 4 5 ) | ( 3 6 ) }
L:1/8
M:4/4
K:F
V:1 treble nm="Akkordion"
V:2 treble nm="Grand Piano"
V:4 treble 
V:5 treble 
V:3 treble 
V:6 treble 
V:1
 z4 z2[Q:1/4=94] FG | A2 A2 AGFG | A6 A2 | G2 GG A2 G2 | F6 FG | A2 A2 AGFG | A6 F2 | G2 GG A2 G2 | %8
[M:3/4] F6 |[M:1/4] c2 |[M:4/4] d2 d2 B2 d2 | c2 A4 c2 | c3 B A2 G2 |[M:3/4] A6 |[M:1/4] c2 | %15
[M:4/4] d2 d2 B2 d2 | c2 A4 c2 | c3 B A2 G2 |[M:3/4] F6 |] %19
V:2
 z4 z2 fg | [Aca]2 [Aca]2 [Aca][GBg][FAf][GBg] | [Aca]6 z2 | [GBg]2 [GBg][GBg] [Aca]2 [GBg]2 | %4
 [FAf]6 z2 | [Aca]2 [Aca]2 [Aca][GBg][FAf][GBg] | [Aca]6 z2 | [GBg]2 [GBg][GBg] [Aca]2 [GBg]2 | %8
[M:3/4] [FAf]6 |[M:1/4] c'2 |[M:4/4] [dfd']2 [dfd']2 [Bdb]2 [dfd']2 | [cfc']2 z2 C2 [cfc']2 | %12
 [cec']4 z4 |[M:3/4] [Aca]6 |[M:1/4] [cfc']2 |[M:4/4] [dfd']2 [dfd']2 [Bdb]2 [dfd']2 | %16
 [cfc']2 z2 C2 [cfc']2 | [cec']4 z4 |[M:3/4] [FAf]6[K:bass] |] %19
V:3
 z4 z2 [FA][GB] | [F,,F,]2 [F,A,C]2 [C,,C,]2 [E,B,C]2 | [F,,F,]2 [F,A,]2 [F,A,]2 [F,A,C]2 | %3
 [C,,C,]2 [E,C]2 [C,,C,]2 [E,B,C]2 | [F,,F,]2 [F,A,]2 [F,A,]2 [F,A,C]2 | %5
 [F,,F,]2 [F,A,C]2 [C,,C,]2 [E,B,C]2 | [F,,F,]2 [F,A,]2 [F,A,]2 [F,A,C]2 | %7
 [C,,C,]2 [E,B,C]2 [C,,C,]2 [E,B,C]2 |[M:3/4] [F,,F,]2 [F,A,]2 [F,A,]2 |[M:1/4][K:treble] [cf]2 | %10
[M:4/4][K:bass] [B,,B,]2 [F,B,D]2 [B,,B,]2 [F,B,D]2 | [A,,A,]2 [F,A,C]2 [F,A,]2 [F,A,C]2 | %12
 [G,,G,]2 z[K:treble] [Bd][K:bass] [C,,C,]2 [E,B,C]2 |[M:3/4] [F,,F,]2 [F,A,]2 [F,A,]2 | %14
[M:1/4] [F,A,C]2 |[M:4/4] [B,,B,]2 [F,B,D]2 [B,,B,]2 [F,B,D]2 | %16
 [A,,A,]2 [F,A,C]2 [F,A,]2 [F,A,C]2 | z2 [E,B,]2[K:treble][K:bass] z4 | %18
[M:3/4] [F,,F,]2 A,,C, F,,2 |] %19
V:4
 x8 | x8 | z2 C2 C2 [Aca]2 | x8 | z2 C2 C2 [FAf][GBg] | x8 | z2 C2 C2 [FAf]2 | x8 | %8
[M:3/4] z2 C2 C2 |[M:1/4] x2 |[M:4/4] x8 | z2 [Aca]4 z2 | z2 z b [Aca]2 [GBg]2 |[M:3/4] z2 C2 C2 | %14
[M:1/4] x2 |[M:4/4] x8 | z2 [Aca]4 z2 | z2 z b [Aca]2 [GBg]2 |[M:3/4] z2 z2[K:bass] F,2 |] %19
V:5
 x8 | x8 | x8 | x8 | x8 | x8 | x8 | x8 |[M:3/4] x6 |[M:1/4] x2 |[M:4/4] x8 | x8 | z2 C2 z4 | %13
[M:3/4] x6 |[M:1/4] x2 |[M:4/4] x8 | x8 | z2 C2 z4 |[M:3/4] x4[K:bass] x2 |] %19
V:6
 x8 | x8 | x8 | x8 | x8 | x8 | x8 | x8 |[M:3/4] x6 |[M:1/4][K:treble] x2 |[M:4/4][K:bass] x8 | x8 | %12
 z2 [E,B,]2[K:treble][K:bass] z4 |[M:3/4] x6 |[M:1/4] x2 |[M:4/4] x8 | x8 | %17
 [C,,C,]2 z[K:treble] [Bd][K:bass] [C,,C,]2 [E,B,C]2 |[M:3/4] x6 |] %19

